source/img/icons/iconable-wool.svg

<svg width="35" height="34" viewBox="0 0 35 34" xmlns="http://www.w3.org/2000/svg">
<path d="M0.305558 13.9528C-0.101853 16.0303 -0.101853 18.1079 0.305558 20.1854L4.48152 17.0196L0.305558 13.9528Z"/>
<path d="M24.852 1.586C19.9631 -0.590493 14.2593 -0.590493 9.26855 1.98172L16.9075 7.52187L24.852 1.586Z"/>
<path d="M34.528 13.062L29.6391 16.7225L34.6299 20.3829C35.1391 18.0086 35.1391 15.4364 34.528 13.062Z"/>
<path d="M9.37048 32.057C14.2594 34.5303 20.2687 34.7281 25.3614 32.1559L17.1113 26.1211L9.37048 32.057Z"/>
<path d="M8.04638 14.2488L1.73151 9.698C1.42595 10.3905 1.12039 11.083 0.916687 11.7756L6.31488 15.7328L8.04638 14.2488Z"/>
<path d="M18.9446 24.8349L27.3984 30.9686C27.7039 30.7707 28.0095 30.5729 28.2132 30.375C28.5187 30.1772 28.8243 29.8804 29.1298 29.5836L20.6761 23.4498L18.9446 24.8349Z"/>
<path d="M11.6112 11.5781L4.07415 6.13684C3.56488 6.6315 3.15747 7.22509 2.75006 7.81867L9.7779 12.9631L11.6112 11.5781Z"/>
<path d="M22.5094 22.1635L30.7595 28.1983C31.2687 27.7036 31.6761 27.11 32.0836 26.5165L24.2409 20.7784L22.5094 22.1635Z"/>
<path d="M15.176 8.90696L7.33336 3.16895C7.12966 3.26788 6.92595 3.46574 6.72225 3.56467C6.31484 3.86146 5.90743 4.15826 5.60187 4.55398L13.4445 10.1931L15.176 8.90696Z"/>
<path d="M26.0743 19.3936L33.204 24.538C33.5095 23.8455 33.8151 23.2519 34.1206 22.5594L27.9076 18.0085L26.0743 19.3936Z"/>
<path d="M26.8891 2.67419L0.916687 22.3615C1.12039 23.054 1.42595 23.7466 1.73151 24.4391L28.7225 3.9603C28.2132 3.46564 27.6021 3.06992 26.8891 2.67419Z"/>
<path d="M31.2688 6.53234C30.9632 6.13661 30.6577 5.74089 30.3521 5.44409L2.85187 26.2197C3.05557 26.7143 3.36113 27.11 3.66669 27.4068C3.76854 27.6047 3.97225 27.8026 4.0741 27.9015L31.778 7.12592C31.5743 6.92806 31.4725 6.7302 31.2688 6.53234Z"/>
<path d="M32.8984 8.90674L5.70374 29.4844C6.213 29.9791 6.82412 30.4738 7.43523 30.8695L33.9169 10.8854C33.6114 10.1928 33.3058 9.50033 32.8984 8.90674Z"/>
</svg>

<svg width="35" height="34" viewBox="0 0 35 34" xmlns="http://www.w3.org/2000/svg"><path d="M.3 13.95c-.4 2.08-.4 4.16 0 6.24l4.18-3.17-4.17-3.07zM24.85 1.59a17.96 17.96 0 00-15.58.4l7.64 5.53 7.94-5.93zm9.68 11.47l-4.9 3.66 5 3.66c.5-2.37.5-4.94-.1-7.32zm-25.16 19a17.84 17.84 0 0016 .1l-8.26-6.04-7.74 5.94zM8.05 14.25L1.73 9.7c-.3.7-.61 1.38-.81 2.08l5.4 3.95 1.73-1.48zm10.89 10.58l8.46 6.14c.3-.2.61-.4.81-.6.3-.2.61-.49.92-.79l-8.45-6.13-1.74 1.38zm-7.33-13.25L4.07 6.14c-.5.5-.91 1.09-1.32 1.68l7.03 5.14 1.83-1.38zM22.5 22.16l8.26 6.04c.5-.5.92-1.09 1.32-1.68l-7.84-5.74-1.73 1.38zM15.18 8.9L7.33 3.18c-.2.1-.4.3-.6.4-.42.3-.82.59-1.13.98l7.84 5.64 1.74-1.28zm10.89 10.5l7.13 5.14c.3-.7.62-1.29.92-1.98L27.91 18l-1.84 1.38zm.82-16.73L.92 22.37c.2.68.5 1.38.81 2.07l27-20.48a8.84 8.84 0 00-1.84-1.29zm4.38 3.86a9.4 9.4 0 00-.92-1.09L2.85 26.22c.2.5.51.89.82 1.19.1.2.3.4.4.5l27.7-20.78c-.2-.2-.3-.4-.5-.6zM32.9 8.9L5.7 29.49c.51.5 1.12 1 1.74 1.39L33.92 10.9c-.3-.7-.61-1.39-1.02-1.98z"/></svg>
